X: 031
T: The Collonel
O:David Young's Collection of 1740
N:Originally a 9/8 slip jig, adapted by RSCDS
N:Play ABCBC
Z:arranged and transcribed by Peter Price  (at) gmail (dot) com> 9 February, 2007
M:6/8
R:Jig
L:1/8
%Q:1/4=168
P: ABCBC
%--------------------
K:G
P: A
c | "G" B/c/dB "G/B"G2g | "C"e/f/ge "D7"ABc | "G"B/c/dB "G/B"G2B | "D7/F#"AFD D2 :|
P: B
c |\
"Em"B2E "Em/G"EFE | "Em"B2E "Em/G"EFE | "Em"B2E "A7"EFG | "D"ABA "D/F#"AFD |
"Em"B2E "Em/G"EFE | "Em"EFE "D7"D2c | "Em"B2E "A7/C#"EFG | "D"AFD "D7/F#"D2 ||
P: C
c |\
"G"Bcd "G/B"dBG | "C"efg "G/B"dBG | "G"Bcd "G/B"dBG | "D"ABA "D/F#"AFD |
"G"Bcd "G/B"dBG | "C"efg "D7"ABc | "G"Bcd "G/B"dBG | "D"AFD "D7/F#"D2 |]

%%sep 2 1 500
%%sep 1 1 500

